report_00007_2020-12-11T15:55:29.892Z/speed-index/comparison/line/4_vs_5.svg

<svg width="640" height="500" xmlns="http://www.w3.org/2000/svg" xmlns:xlink="http://www.w3.org/1999/xlink"><path fill="#fff" d="M0 0h640v500H0z"/><defs><path id="d" stroke-width=".222" stroke="currentColor" d="M-1-1h2v2h-2z"/><path id="b" stroke-width=".222" stroke="currentColor" d="M0-1.33l-1.33 2h2.66z"/><path id="f" stroke-width=".222" stroke="currentColor" d="M0 1.33L1.265.411.782-1.067l-1.564-.009-.483 1.487z"/><use xlink:href="#b" id="c" stroke="currentColor" transform="rotate(180)"/><use xlink:href="#d" id="e" stroke="currentColor" transform="rotate(45)"/><circle id="a" stroke-width=".222" stroke="currentColor" cx="0" cy="0" r="1"/></defs><g fill="none" color="#000" stroke="currentColor"><path stroke="#000" d="M62.2 396.4h9m543.8 0h-9"/><text transform="translate(53.9 400.3)" stroke="none" fill="#000" font-family="Arial" font-size="12" text-anchor="end"><tspan>2540</tspan></text></g><g fill="none" color="#000" stroke="currentColor"><path stroke="#000" d="M62.2 352.5h9m543.8 0h-9"/><text transform="translate(53.9 356.4)" stroke="none" fill="#000" font-family="Arial" font-size="12" text-anchor="end"><tspan>2560</tspan></text></g><g fill="none" color="#000" stroke="currentColor"><path stroke="#000" d="M62.2 308.6h9m543.8 0h-9"/><text transform="translate(53.9 312.5)" stroke="none" fill="#000" font-family="Arial" font-size="12" text-anchor="end"><tspan>2580</tspan></text></g><g fill="none" color="#000" stroke="currentColor"><path stroke="#000" d="M62.2 264.7h9m543.8 0h-9"/><text transform="translate(53.9 268.6)" stroke="none" fill="#000" font-family="Arial" font-size="12" text-anchor="end"><tspan>2600</tspan></text></g><g fill="none" color="#000" stroke="currentColor"><path stroke="#000" d="M62.2 220.8h9m543.8 0h-9"/><text transform="translate(53.9 224.7)" stroke="none" fill="#000" font-family="Arial" font-size="12" text-anchor="end"><tspan>2620</tspan></text></g><g fill="none" color="#000" stroke="currentColor"><path stroke="#000" d="M62.2 176.8h9m543.8 0h-9"/><text transform="translate(53.9 180.7)" stroke="none" fill="#000" font-family="Arial" font-size="12" text-anchor="end"><tspan>2640</tspan></text></g><g fill="none" color="#000" stroke="currentColor"><path stroke="#000" d="M62.2 132.9h9m543.8 0h-9"/><text transform="translate(53.9 136.8)" stroke="none" fill="#000" font-family="Arial" font-size="12" text-anchor="end"><tspan>2660</tspan></text></g><g fill="none" color="#000" stroke="currentColor"><path stroke="#000" d="M62.2 89h9M615 89h-9"/><text transform="translate(53.9 92.9)" stroke="none" fill="#000" font-family="Arial" font-size="12" text-anchor="end"><tspan>2680</tspan></text></g><g fill="none" color="#000" stroke="currentColor"><path stroke="#000" d="M62.2 45.1h9m543.8 0h-9"/><text transform="translate(53.9 49)" stroke="none" fill="#000" font-family="Arial" font-size="12" text-anchor="end"><tspan>2700</tspan></text></g><g fill="none" color="#000" stroke="currentColor"><path stroke="#000" d="M62.2 428v-9m0-400.9v9"/><text transform="translate(62.2 449.9)" stroke="none" fill="#000" font-family="Arial" font-size="12" text-anchor="middle"><tspan>0</tspan></text></g><g fill="none" color="#000" stroke="currentColor"><path stroke="#000" d="M118 428v-9m0-400.9v9"/><text transform="translate(118 449.9)" stroke="none" fill="#000" font-family="Arial" font-size="12" text-anchor="middle"><tspan>10</tspan></text></g><g fill="none" color="#000" stroke="currentColor"><path stroke="#000" d="M173.9 428v-9m0-400.9v9"/><text transform="translate(173.9 449.9)" stroke="none" fill="#000" font-family="Arial" font-size="12" text-anchor="middle"><tspan>20</tspan></text></g><g fill="none" color="#000" stroke="currentColor"><path stroke="#000" d="M229.7 428v-9m0-400.9v9"/><text transform="translate(229.7 449.9)" stroke="none" fill="#000" font-family="Arial" font-size="12" text-anchor="middle"><tspan>30</tspan></text></g><g fill="none" color="#000" stroke="currentColor"><path stroke="#000" d="M285.6 428v-9m0-400.9v9"/><text transform="translate(285.6 449.9)" stroke="none" fill="#000" font-family="Arial" font-size="12" text-anchor="middle"><tspan>40</tspan></text></g><g fill="none" color="#000" stroke="currentColor"><path stroke="#000" d="M341.4 428v-9m0-400.9v9"/><text transform="translate(341.4 449.9)" stroke="none" fill="#000" font-family="Arial" font-size="12" text-anchor="middle"><tspan>50</tspan></text></g><g fill="none" color="#000" stroke="currentColor"><path stroke="#000" d="M397.2 428v-9m0-400.9v9"/><text transform="translate(397.2 449.9)" stroke="none" fill="#000" font-family="Arial" font-size="12" text-anchor="middle"><tspan>60</tspan></text></g><g fill="none" color="#000" stroke="currentColor"><path stroke="#000" d="M453.1 428v-9m0-400.9v9"/><text transform="translate(453.1 449.9)" stroke="none" fill="#000" font-family="Arial" font-size="12" text-anchor="middle"><tspan>70</tspan></text></g><g fill="none" color="#000" stroke="currentColor"><path stroke="#000" d="M508.9 428v-9m0-400.9v9"/><text transform="translate(508.9 449.9)" stroke="none" fill="#000" font-family="Arial" font-size="12" text-anchor="middle"><tspan>80</tspan></text></g><g fill="none" color="#000" stroke="currentColor"><path stroke="#000" d="M564.7 428v-9m0-400.9v9"/><text transform="translate(564.7 449.9)" stroke="none" fill="#000" font-family="Arial" font-size="12" text-anchor="middle"><tspan>90</tspan></text></g><path stroke="#000" d="M62.2 18.1V428H615V18.1H62.2z" fill="none" color="#000"/><text transform="translate(279.8 467.9)" stroke="none" fill="#000" font-family="Arial" font-size="12" text-anchor="end" color="#000"><tspan>pages+cached+noadtech</tspan></text><path stroke="#9400D3" d="M288.1 464h42.2M62.2 185.8l5.6 126.6 5.6 16.3 5.6-3.8 5.5 83.4 5.6-280.5 5.6-21.4 5.6 281.9 5.6-53 5.6-246.7 5.5 257.7 5.6-209.3 5.6 147.1 5.6-162.3 5.6-25.5 5.6-22.6 5.5 310.3 5.6-272.1 5.6 302.3 5.6-322.9 5.6 233.6 5.6-175.8 5.5-72.5 5.6 19.6 5.6 213 5.6-230.3 5.6 32.3 5.6 246.6 5.5 38.5 5.6-243.1 5.6-22.3 5.6 208.6 5.6 43.4 5.6-290 5.6 257.3 5.5-193.4 5.6-46.2 5.6 242.6 5.6-176.5 5.6-37.9 5.6-52.5 5.5 309.9 5.6-266.3 5.6 18.5 5.6-39.9 5.6 255.1 5.6-255.7 5.5 185.9 5.6 79.2 5.6-280.4 5.6 250.8L347 78.7l5.6-14.2 5.5 330.6 5.6-27 5.6-232.9 5.6 211.4 5.6-250.9 5.6-4.1 5.5 202.4 5.6 77.4 5.6-249.7 5.6 50.2 5.6 124.3 5.6 58 5.5-257.1 5.6 32.4 5.6 223.2 5.6-14.3 5.6-182.7 5.6 8.3 5.6 256 5.5-334.9 5.6 44.4 5.6 290.6 5.6-319.2 5.6-26.7 5.6 249.8 5.5-166.2 5.6-73 5.6 84.4 5.6-68.5 5.6 48.7 5.6-56.3 5.5 54.5 5.6 1.4 5.6 231L548 92.1l5.6 54.1 5.6-13.5 5.5-24.1 5.6 191.9 5.6-175 5.6 263.1 5.6-233.9 5.6 170 5.5-213.2 5.6 232.2 5.6-229.5L615 139" fill="none" color="#000"/><text transform="translate(279.8 485.9)" stroke="none" fill="#000" font-family="Arial" font-size="12" text-anchor="end" color="#000"><tspan>pages+cached+noexternal</tspan></text><path stroke="#009E73" d="M288.1 482h42.2M62.2 361.1l5.6 7.6 5.6-2.3L79 87.5l5.5 275.3 5.6-16.4 5.6-2.8 5.6 61.8 5.6-271.3 5.6-12.6 5.5-28.9 5.6 30.9 5.6-21 5.6-7.8 5.6 182.1L146 98.7l5.5-14.2 5.6 5 5.6 59.1 5.6-56.4 5.6-7.6 5.6 255.7 5.5 17.4 5.6-31.6 5.6 32.9 5.6-29.2 5.6 25.6 5.6-195.9 5.5-77.1 5.6-2.3 5.6 267.3 5.6-255.5 5.6 265.3 5.6-72.4 5.6-160.8 5.5 220.3 5.6 54.9 5.6-130.1 5.6-167.9 5.6 38.1 5.6-60 5.5 303.2 5.6-305.4 5.6 237.8 5.6 6.6 5.6 56 5.6-242.1 5.5 179.4 5.6-240.5 5.6 220.6 5.6-189.5 5.6-2.4 5.6-77 5.5 113.5 5.6 198.4 5.6-12.9 5.6 37.3 5.6-272.2 5.6 27.3 5.5 18.1 5.6 178.6 5.6-204.2 5.6-14.6 5.6-46.9 5.6 59.9 5.5 17.7 5.6 174.1 5.6-214 5.6 19.6 5.6 297.2 5.6-30.6 5.6 26 5.5-2.9 5.6-352.9 5.6 296.7 5.6-197.3 5.6 205.8L492.2 59l5.5 248.5 5.6-194.3 5.6 266L514.5 98l5.6-31.7 5.6 282.2 5.5-1.9 5.6-214.5 5.6-18.9 5.6-2.1 5.6-43.1 5.6 192.2 5.5-171.5 5.6 253.9 5.6-249.4 5.6 32.9 5.6-27.8 5.6-5.3 5.5 278.9 5.6-219.1 5.6-54.1 5.6 263.4" fill="none" color="#000"/><text transform="translate(529.5 467.9)" stroke="none" fill="#000" font-family="Arial" font-size="12" text-anchor="end" color="#000"><tspan>score p10=3387</tspan></text><path stroke="#56B4E9" d="M537.8 464H580" fill="none" color="#000"/><g><text transform="translate(529.5 485.9)" stroke="none" fill="#000" font-family="Arial" font-size="12" text-anchor="end" color="#000"><tspan>score median=5800</tspan></text><path stroke="#E69F00" d="M537.8 482H580" fill="none" color="#000"/></g><g fill="none" color="#000" stroke="currentColor"><path stroke="#000" d="M62.2 18.1V428H615V18.1H62.2z"/></g></svg>

<?xml version="1.0" encoding="utf-8"  standalone="no"?>
<svg 
 width="640" height="500"
 viewBox="0 0 640 500"
 xmlns="http://www.w3.org/2000/svg"
 xmlns:xlink="http://www.w3.org/1999/xlink"
>

<title>Gnuplot</title>
<desc>Produced by GNUPLOT 5.4 patchlevel 0 </desc>

<g id="gnuplot_canvas">

<rect x="0" y="0" width="640" height="500" fill="#ffffff"/>
<defs>

	<circle id='gpDot' r='0.5' stroke-width='0.5' stroke='currentColor'/>
	<path id='gpPt0' stroke-width='0.222' stroke='currentColor' d='M-1,0 h2 M0,-1 v2'/>
	<path id='gpPt1' stroke-width='0.222' stroke='currentColor' d='M-1,-1 L1,1 M1,-1 L-1,1'/>
	<path id='gpPt2' stroke-width='0.222' stroke='currentColor' d='M-1,0 L1,0 M0,-1 L0,1 M-1,-1 L1,1 M-1,1 L1,-1'/>
	<rect id='gpPt3' stroke-width='0.222' stroke='currentColor' x='-1' y='-1' width='2' height='2'/>
	<rect id='gpPt4' stroke-width='0.222' stroke='currentColor' fill='currentColor' x='-1' y='-1' width='2' height='2'/>
	<circle id='gpPt5' stroke-width='0.222' stroke='currentColor' cx='0' cy='0' r='1'/>
	<use xlink:href='#gpPt5' id='gpPt6' fill='currentColor' stroke='none'/>
	<path id='gpPt7' stroke-width='0.222' stroke='currentColor' d='M0,-1.33 L-1.33,0.67 L1.33,0.67 z'/>
	<use xlink:href='#gpPt7' id='gpPt8' fill='currentColor' stroke='none'/>
	<use xlink:href='#gpPt7' id='gpPt9' stroke='currentColor' transform='rotate(180)'/>
	<use xlink:href='#gpPt9' id='gpPt10' fill='currentColor' stroke='none'/>
	<use xlink:href='#gpPt3' id='gpPt11' stroke='currentColor' transform='rotate(45)'/>
	<use xlink:href='#gpPt11' id='gpPt12' fill='currentColor' stroke='none'/>
	<path id='gpPt13' stroke-width='0.222' stroke='currentColor' d='M0,1.330 L1.265,0.411 L0.782,-1.067 L-0.782,-1.076 L-1.265,0.411 z'/>
	<use xlink:href='#gpPt13' id='gpPt14' fill='currentColor' stroke='none'/>
	<filter id='textbox' filterUnits='objectBoundingBox' x='0' y='0' height='1' width='1'>
	  <feFlood flood-color='#FFFFFF' flood-opacity='1' result='bgnd'/>
	  <feComposite in='SourceGraphic' in2='bgnd' operator='atop'/>
	</filter>
	<filter id='greybox' filterUnits='objectBoundingBox' x='0' y='0' height='1' width='1'>
	  <feFlood flood-color='lightgrey' flood-opacity='1' result='grey'/>
	  <feComposite in='SourceGraphic' in2='grey' operator='atop'/>
	</filter>
</defs>
<g fill="none" color="#FFFFFF" stroke="black" stroke-width="1.00" stroke-linecap="butt" stroke-linejoin="miter">
</g>
<g fill="none" color="black" stroke="currentColor" stroke-width="1.00" stroke-linecap="butt" stroke-linejoin="miter">
	<path stroke='black'  d='M62.2,396.4 L71.2,396.4 M615.0,396.4 L606.0,396.4  '/>	<g transform="translate(53.9,400.3)" stroke="none" fill="black" font-family="Arial" font-size="12.00"  text-anchor="end">
		<text><tspan font-family="Arial" > 2540</tspan></text>
	</g>
</g>
<g fill="none" color="black" stroke="currentColor" stroke-width="1.00" stroke-linecap="butt" stroke-linejoin="miter">
	<path stroke='black'  d='M62.2,352.5 L71.2,352.5 M615.0,352.5 L606.0,352.5  '/>	<g transform="translate(53.9,356.4)" stroke="none" fill="black" font-family="Arial" font-size="12.00"  text-anchor="end">
		<text><tspan font-family="Arial" > 2560</tspan></text>
	</g>
</g>
<g fill="none" color="black" stroke="currentColor" stroke-width="1.00" stroke-linecap="butt" stroke-linejoin="miter">
	<path stroke='black'  d='M62.2,308.6 L71.2,308.6 M615.0,308.6 L606.0,308.6  '/>	<g transform="translate(53.9,312.5)" stroke="none" fill="black" font-family="Arial" font-size="12.00"  text-anchor="end">
		<text><tspan font-family="Arial" > 2580</tspan></text>
	</g>
</g>
<g fill="none" color="black" stroke="currentColor" stroke-width="1.00" stroke-linecap="butt" stroke-linejoin="miter">
	<path stroke='black'  d='M62.2,264.7 L71.2,264.7 M615.0,264.7 L606.0,264.7  '/>	<g transform="translate(53.9,268.6)" stroke="none" fill="black" font-family="Arial" font-size="12.00"  text-anchor="end">
		<text><tspan font-family="Arial" > 2600</tspan></text>
	</g>
</g>
<g fill="none" color="black" stroke="currentColor" stroke-width="1.00" stroke-linecap="butt" stroke-linejoin="miter">
	<path stroke='black'  d='M62.2,220.8 L71.2,220.8 M615.0,220.8 L606.0,220.8  '/>	<g transform="translate(53.9,224.7)" stroke="none" fill="black" font-family="Arial" font-size="12.00"  text-anchor="end">
		<text><tspan font-family="Arial" > 2620</tspan></text>
	</g>
</g>
<g fill="none" color="black" stroke="currentColor" stroke-width="1.00" stroke-linecap="butt" stroke-linejoin="miter">
	<path stroke='black'  d='M62.2,176.8 L71.2,176.8 M615.0,176.8 L606.0,176.8  '/>	<g transform="translate(53.9,180.7)" stroke="none" fill="black" font-family="Arial" font-size="12.00"  text-anchor="end">
		<text><tspan font-family="Arial" > 2640</tspan></text>
	</g>
</g>
<g fill="none" color="black" stroke="currentColor" stroke-width="1.00" stroke-linecap="butt" stroke-linejoin="miter">
	<path stroke='black'  d='M62.2,132.9 L71.2,132.9 M615.0,132.9 L606.0,132.9  '/>	<g transform="translate(53.9,136.8)" stroke="none" fill="black" font-family="Arial" font-size="12.00"  text-anchor="end">
		<text><tspan font-family="Arial" > 2660</tspan></text>
	</g>
</g>
<g fill="none" color="black" stroke="currentColor" stroke-width="1.00" stroke-linecap="butt" stroke-linejoin="miter">
	<path stroke='black'  d='M62.2,89.0 L71.2,89.0 M615.0,89.0 L606.0,89.0  '/>	<g transform="translate(53.9,92.9)" stroke="none" fill="black" font-family="Arial" font-size="12.00"  text-anchor="end">
		<text><tspan font-family="Arial" > 2680</tspan></text>
	</g>
</g>
<g fill="none" color="black" stroke="currentColor" stroke-width="1.00" stroke-linecap="butt" stroke-linejoin="miter">
	<path stroke='black'  d='M62.2,45.1 L71.2,45.1 M615.0,45.1 L606.0,45.1  '/>	<g transform="translate(53.9,49.0)" stroke="none" fill="black" font-family="Arial" font-size="12.00"  text-anchor="end">
		<text><tspan font-family="Arial" > 2700</tspan></text>
	</g>
</g>
<g fill="none" color="black" stroke="currentColor" stroke-width="1.00" stroke-linecap="butt" stroke-linejoin="miter">
	<path stroke='black'  d='M62.2,428.0 L62.2,419.0 M62.2,18.1 L62.2,27.1  '/>	<g transform="translate(62.2,449.9)" stroke="none" fill="black" font-family="Arial" font-size="12.00"  text-anchor="middle">
		<text><tspan font-family="Arial" > 0</tspan></text>
	</g>
</g>
<g fill="none" color="black" stroke="currentColor" stroke-width="1.00" stroke-linecap="butt" stroke-linejoin="miter">
	<path stroke='black'  d='M118.0,428.0 L118.0,419.0 M118.0,18.1 L118.0,27.1  '/>	<g transform="translate(118.0,449.9)" stroke="none" fill="black" font-family="Arial" font-size="12.00"  text-anchor="middle">
		<text><tspan font-family="Arial" > 10</tspan></text>
	</g>
</g>
<g fill="none" color="black" stroke="currentColor" stroke-width="1.00" stroke-linecap="butt" stroke-linejoin="miter">
	<path stroke='black'  d='M173.9,428.0 L173.9,419.0 M173.9,18.1 L173.9,27.1  '/>	<g transform="translate(173.9,449.9)" stroke="none" fill="black" font-family="Arial" font-size="12.00"  text-anchor="middle">
		<text><tspan font-family="Arial" > 20</tspan></text>
	</g>
</g>
<g fill="none" color="black" stroke="currentColor" stroke-width="1.00" stroke-linecap="butt" stroke-linejoin="miter">
	<path stroke='black'  d='M229.7,428.0 L229.7,419.0 M229.7,18.1 L229.7,27.1  '/>	<g transform="translate(229.7,449.9)" stroke="none" fill="black" font-family="Arial" font-size="12.00"  text-anchor="middle">
		<text><tspan font-family="Arial" > 30</tspan></text>
	</g>
</g>
<g fill="none" color="black" stroke="currentColor" stroke-width="1.00" stroke-linecap="butt" stroke-linejoin="miter">
	<path stroke='black'  d='M285.6,428.0 L285.6,419.0 M285.6,18.1 L285.6,27.1  '/>	<g transform="translate(285.6,449.9)" stroke="none" fill="black" font-family="Arial" font-size="12.00"  text-anchor="middle">
		<text><tspan font-family="Arial" > 40</tspan></text>
	</g>
</g>
<g fill="none" color="black" stroke="currentColor" stroke-width="1.00" stroke-linecap="butt" stroke-linejoin="miter">
	<path stroke='black'  d='M341.4,428.0 L341.4,419.0 M341.4,18.1 L341.4,27.1  '/>	<g transform="translate(341.4,449.9)" stroke="none" fill="black" font-family="Arial" font-size="12.00"  text-anchor="middle">
		<text><tspan font-family="Arial" > 50</tspan></text>
	</g>
</g>
<g fill="none" color="black" stroke="currentColor" stroke-width="1.00" stroke-linecap="butt" stroke-linejoin="miter">
	<path stroke='black'  d='M397.2,428.0 L397.2,419.0 M397.2,18.1 L397.2,27.1  '/>	<g transform="translate(397.2,449.9)" stroke="none" fill="black" font-family="Arial" font-size="12.00"  text-anchor="middle">
		<text><tspan font-family="Arial" > 60</tspan></text>
	</g>
</g>
<g fill="none" color="black" stroke="currentColor" stroke-width="1.00" stroke-linecap="butt" stroke-linejoin="miter">
	<path stroke='black'  d='M453.1,428.0 L453.1,419.0 M453.1,18.1 L453.1,27.1  '/>	<g transform="translate(453.1,449.9)" stroke="none" fill="black" font-family="Arial" font-size="12.00"  text-anchor="middle">
		<text><tspan font-family="Arial" > 70</tspan></text>
	</g>
</g>
<g fill="none" color="black" stroke="currentColor" stroke-width="1.00" stroke-linecap="butt" stroke-linejoin="miter">
	<path stroke='black'  d='M508.9,428.0 L508.9,419.0 M508.9,18.1 L508.9,27.1  '/>	<g transform="translate(508.9,449.9)" stroke="none" fill="black" font-family="Arial" font-size="12.00"  text-anchor="middle">
		<text><tspan font-family="Arial" > 80</tspan></text>
	</g>
</g>
<g fill="none" color="black" stroke="currentColor" stroke-width="1.00" stroke-linecap="butt" stroke-linejoin="miter">
	<path stroke='black'  d='M564.7,428.0 L564.7,419.0 M564.7,18.1 L564.7,27.1  '/>	<g transform="translate(564.7,449.9)" stroke="none" fill="black" font-family="Arial" font-size="12.00"  text-anchor="middle">
		<text><tspan font-family="Arial" > 90</tspan></text>
	</g>
</g>
<g fill="none" color="black" stroke="currentColor" stroke-width="1.00" stroke-linecap="butt" stroke-linejoin="miter">
</g>
<g fill="none" color="black" stroke="currentColor" stroke-width="1.00" stroke-linecap="butt" stroke-linejoin="miter">
	<path stroke='black'  d='M62.2,18.1 L62.2,428.0 L615.0,428.0 L615.0,18.1 L62.2,18.1 Z  '/></g>
<g fill="none" color="black" stroke="currentColor" stroke-width="1.00" stroke-linecap="butt" stroke-linejoin="miter">
</g>
	<g id="gnuplot_plot_1" ><title>pages+cached+noadtech</title>
<g fill="none" color="black" stroke="currentColor" stroke-width="1.00" stroke-linecap="butt" stroke-linejoin="miter">
	<g transform="translate(279.8,467.9)" stroke="none" fill="black" font-family="Arial" font-size="12.00"  text-anchor="end">
		<text><tspan font-family="Arial" >pages+cached+noadtech</tspan></text>
	</g>
</g>
<g fill="none" color="black" stroke="currentColor" stroke-width="1.00" stroke-linecap="butt" stroke-linejoin="miter">
	<path stroke='rgb(148,   0, 211)'  d='M288.1,464.0 L330.3,464.0 M62.2,185.8 L67.8,312.4 L73.4,328.7 L79.0,324.9 L84.5,408.3 L90.1,127.8
		L95.7,106.4 L101.3,388.3 L106.9,335.3 L112.5,88.6 L118.0,346.3 L123.6,137.0 L129.2,284.1 L134.8,121.8
		L140.4,96.3 L146.0,73.7 L151.5,384.0 L157.1,111.9 L162.7,414.2 L168.3,91.3 L173.9,324.9 L179.5,149.1
		L185.0,76.6 L190.6,96.2 L196.2,309.2 L201.8,78.9 L207.4,111.2 L213.0,357.8 L218.5,396.3 L224.1,153.2
		L229.7,130.9 L235.3,339.5 L240.9,382.9 L246.5,92.9 L252.1,350.2 L257.6,156.8 L263.2,110.6 L268.8,353.2
		L274.4,176.7 L280.0,138.8 L285.6,86.3 L291.1,396.2 L296.7,129.9 L302.3,148.4 L307.9,108.5 L313.5,363.6
		L319.1,107.9 L324.6,293.8 L330.2,373.0 L335.8,92.6 L341.4,343.4 L347.0,78.7 L352.6,64.5 L358.1,395.1
		L363.7,368.1 L369.3,135.2 L374.9,346.6 L380.5,95.7 L386.1,91.6 L391.6,294.0 L397.2,371.4 L402.8,121.7
		L408.4,171.9 L414.0,296.2 L419.6,354.2 L425.1,97.1 L430.7,129.5 L436.3,352.7 L441.9,338.4 L447.5,155.7
		L453.1,164.0 L458.7,420.0 L464.2,85.1 L469.8,129.5 L475.4,420.1 L481.0,100.9 L486.6,74.2 L492.2,324.0
		L497.7,157.8 L503.3,84.8 L508.9,169.2 L514.5,100.7 L520.1,149.4 L525.7,93.1 L531.2,147.6 L536.8,149.0
		L542.4,380.0 L548.0,92.1 L553.6,146.2 L559.2,132.7 L564.7,108.6 L570.3,300.5 L575.9,125.5 L581.5,388.6
		L587.1,154.7 L592.7,324.7 L598.2,111.5 L603.8,343.7 L609.4,114.2 L615.0,139.0  '/></g>
	</g>
	<g id="gnuplot_plot_2" ><title>pages+cached+noexternal</title>
<g fill="none" color="black" stroke="currentColor" stroke-width="1.00" stroke-linecap="butt" stroke-linejoin="miter">
	<g transform="translate(279.8,485.9)" stroke="none" fill="black" font-family="Arial" font-size="12.00"  text-anchor="end">
		<text><tspan font-family="Arial" >pages+cached+noexternal</tspan></text>
	</g>
</g>
<g fill="none" color="black" stroke="currentColor" stroke-width="1.00" stroke-linecap="butt" stroke-linejoin="miter">
	<path stroke='rgb(  0, 158, 115)'  d='M288.1,482.0 L330.3,482.0 M62.2,361.1 L67.8,368.7 L73.4,366.4 L79.0,87.5 L84.5,362.8 L90.1,346.4
		L95.7,343.6 L101.3,405.4 L106.9,134.1 L112.5,121.5 L118.0,92.6 L123.6,123.5 L129.2,102.5 L134.8,94.7
		L140.4,276.8 L146.0,98.7 L151.5,84.5 L157.1,89.5 L162.7,148.6 L168.3,92.2 L173.9,84.6 L179.5,340.3
		L185.0,357.7 L190.6,326.1 L196.2,359.0 L201.8,329.8 L207.4,355.4 L213.0,159.5 L218.5,82.4 L224.1,80.1
		L229.7,347.4 L235.3,91.9 L240.9,357.2 L246.5,284.8 L252.1,124.0 L257.6,344.3 L263.2,399.2 L268.8,269.1
		L274.4,101.2 L280.0,139.3 L285.6,79.3 L291.1,382.5 L296.7,77.1 L302.3,314.9 L307.9,321.5 L313.5,377.5
		L319.1,135.4 L324.6,314.8 L330.2,74.3 L335.8,294.9 L341.4,105.4 L347.0,103.0 L352.6,26.0 L358.1,139.5
		L363.7,337.9 L369.3,325.0 L374.9,362.3 L380.5,90.1 L386.1,117.4 L391.6,135.5 L397.2,314.1 L402.8,109.9
		L408.4,95.3 L414.0,48.4 L419.6,108.3 L425.1,126.0 L430.7,300.1 L436.3,86.1 L441.9,105.7 L447.5,402.9
		L453.1,372.3 L458.7,398.3 L464.2,395.4 L469.8,42.5 L475.4,339.2 L481.0,141.9 L486.6,347.7 L492.2,59.0
		L497.7,307.5 L503.3,113.2 L508.9,379.2 L514.5,98.0 L520.1,66.3 L525.7,348.5 L531.2,346.6 L536.8,132.1
		L542.4,113.2 L548.0,111.1 L553.6,68.0 L559.2,260.2 L564.7,88.7 L570.3,342.6 L575.9,93.2 L581.5,126.1
		L587.1,98.3 L592.7,93.0 L598.2,371.9 L603.8,152.8 L609.4,98.7 L615.0,362.1  '/></g>
	</g>
	<g id="gnuplot_plot_3" ><title>score p10=3387</title>
<g fill="none" color="black" stroke="currentColor" stroke-width="1.00" stroke-linecap="butt" stroke-linejoin="miter">
	<g transform="translate(529.5,467.9)" stroke="none" fill="black" font-family="Arial" font-size="12.00"  text-anchor="end">
		<text><tspan font-family="Arial" >score p10=3387</tspan></text>
	</g>
</g>
<g fill="none" color="black" stroke="currentColor" stroke-width="1.00" stroke-linecap="butt" stroke-linejoin="miter">
	<path stroke='rgb( 86, 180, 233)'  d='M537.8,464.0 L580.0,464.0  '/></g>
	</g>
	<g id="gnuplot_plot_4" ><title>score median=5800</title>
<g fill="none" color="black" stroke="currentColor" stroke-width="1.00" stroke-linecap="butt" stroke-linejoin="miter">
	<g transform="translate(529.5,485.9)" stroke="none" fill="black" font-family="Arial" font-size="12.00"  text-anchor="end">
		<text><tspan font-family="Arial" >score median=5800</tspan></text>
	</g>
</g>
<g fill="none" color="black" stroke="currentColor" stroke-width="1.00" stroke-linecap="butt" stroke-linejoin="miter">
	<path stroke='rgb(230, 159,   0)'  d='M537.8,482.0 L580.0,482.0  '/></g>
	</g>
<g fill="none" color="#FFFFFF" stroke="rgb(230, 159,   0)" stroke-width="2.00" stroke-linecap="butt" stroke-linejoin="miter">
</g>
<g fill="none" color="black" stroke="currentColor" stroke-width="2.00" stroke-linecap="butt" stroke-linejoin="miter">
</g>
<g fill="none" color="black" stroke="black" stroke-width="1.00" stroke-linecap="butt" stroke-linejoin="miter">
</g>
<g fill="none" color="black" stroke="currentColor" stroke-width="1.00" stroke-linecap="butt" stroke-linejoin="miter">
	<path stroke='black'  d='M62.2,18.1 L62.2,428.0 L615.0,428.0 L615.0,18.1 L62.2,18.1 Z  '/></g>
<g fill="none" color="black" stroke="currentColor" stroke-width="1.00" stroke-linecap="butt" stroke-linejoin="miter">
</g>
</g>
</svg>
